svg/fluentui-system-icons/ic_fluent_text_clear_formatting_16_regular.svg

<svg width="16" height="16" viewBox="0 0 16 16" fill="none" xmlns="http://www.w3.org/2000/svg">
<path d="M4.50013 1C4.70014 1 4.88091 1.1192 4.9597 1.30304L7.84443 8.03407L7.09096 8.78754C7.07144 8.75971 7.05448 8.72945 7.04056 8.69696L6.31329 7H2.68697L1.9597 8.69696C1.85092 8.95077 1.55698 9.06835 1.30317 8.95957C1.04935 8.85079 0.931778 8.55686 1.04056 8.30304L4.04056 1.30304C4.11935 1.1192 4.30011 1 4.50013 1ZM5.88472 6L4.50013 2.7693L3.11554 6H5.88472ZM14.3118 6.19062C14.3143 6.12693 14.3156 6.06241 14.3156 5.99707C14.3156 4.17627 13.3595 3 11.8878 3C11.0929 3 10.3893 3.39209 10.0724 4.01514H10.0001V1.5C10.0001 1.22386 9.77627 1 9.50013 1C9.22399 1 9.00013 1.22386 9.00013 1.5V6.87837L10.0001 5.87837V5.48435C10.149 4.45151 10.7623 3.83252 11.673 3.83252C12.5257 3.83252 13.0993 4.35921 13.2899 5.27206C13.4601 5.37475 13.6207 5.49953 13.7676 5.64642L14.3118 6.19062ZM9.50081 15C8.97293 15.1866 8.36148 15.0687 7.93919 14.6464L6.3534 13.0606C5.76762 12.4748 5.76762 11.5251 6.3534 10.9393L10.9392 6.35352C11.525 5.76774 12.4747 5.76774 13.0605 6.35352L14.6463 7.93931C15.2321 8.5251 15.2321 9.47484 14.6463 10.0606L11.3615 13.3454C11.3589 13.3481 11.3563 13.3509 11.3536 13.3536C11.3509 13.3563 11.3481 13.3589 11.3454 13.3615L10.7069 14H12.5C12.7761 14 13 14.2239 13 14.5C13 14.7761 12.7761 15 12.5 15H9.50081ZM10.2928 12.9999L7.99991 10.707L7.06051 11.6464C6.86525 11.8417 6.86525 12.1583 7.06051 12.3535L8.6463 13.9393C8.84156 14.1346 9.15814 14.1346 9.3534 13.9393L10.2928 12.9999ZM10.9999 12.2928L13.9392 9.35352C14.1345 9.15826 14.1345 8.84168 13.9392 8.64642L12.3534 7.06063C12.1581 6.86537 11.8416 6.86537 11.6463 7.06063L8.70702 9.99991L10.9999 12.2928Z" fill="#212121"/>
</svg>

<svg xmlns="http://www.w3.org/2000/svg" width="16" height="16"><path d="M4.5 1c.2 0 .38.12.46.303l2.884 6.731-.753.754a.502.502 0 0 1-.05-.091L6.313 7H2.687L1.96 8.697a.5.5 0 0 1-.92-.394l3-7A.5.5 0 0 1 4.5 1Zm1.385 5L4.5 2.77 3.116 6h2.769Zm8.427.19c.002-.063.004-.128.004-.193 0-1.82-.957-2.997-2.428-2.997-.795 0-1.499.392-1.816 1.015H10V1.5a.5.5 0 1 0-1 0v5.378l1-1v-.394c.149-1.032.762-1.651 1.673-1.651.853 0 1.426.526 1.617 1.44.17.102.33.227.478.373l.544.545ZM9.5 15a1.5 1.5 0 0 1-1.562-.354l-1.586-1.585a1.5 1.5 0 0 1 0-2.122l4.586-4.585a1.5 1.5 0 0 1 2.121 0l1.586 1.585a1.5 1.5 0 0 1 0 2.122l-3.285 3.284-.007.009-.009.008-.638.638H12.5a.5.5 0 0 1 0 1h-3Zm.792-2L8 10.707l-.94.94a.5.5 0 0 0 0 .707l1.586 1.585a.5.5 0 0 0 .707 0l.94-.94Zm.707-.707 2.94-2.94a.5.5 0 0 0 0-.707l-1.587-1.585a.5.5 0 0 0-.707 0L8.707 10 11 12.293Z"/></svg>
